#define darklogo_width 64
#define darklogo_height 128
static unsigned char darklogo_bits[] = {
   0xff, 0xff, 0xff, 0xff, 0xff, 0xff, 0xff, 0xff, 0xff, 0xff, 0xff, 0xff,
   0xff, 0xff, 0xff, 0xff, 0xff, 0xff, 0xff, 0xff, 0xff, 0xff, 0xff, 0xff,
   0xff, 0xff, 0xff, 0xff, 0xff, 0xff, 0xff, 0xff, 0xff, 0xff, 0xff, 0xff,
   0xff, 0xff, 0xff, 0xff, 0xff, 0xff, 0xff, 0xff, 0xff, 0xff, 0xff, 0xff,
   0xff, 0xff, 0xff, 0xff, 0xff, 0xff, 0xff, 0xff, 0xff, 0xff, 0xff, 0xff,
   0xff, 0xff, 0xff, 0xff, 0xff, 0xff, 0xff, 0xff, 0xff, 0xff, 0xff, 0xff,
   0xff, 0xff, 0xff, 0xff, 0xff, 0xff, 0xff, 0xff, 0xff, 0xff, 0xff, 0xff,
   0xff, 0xff, 0xff, 0xff, 0xff, 0xff, 0xff, 0xff, 0xff, 0xff, 0xff, 0xff,
   0xff, 0xff, 0xff, 0xff, 0xff, 0xff, 0xff, 0xff, 0xff, 0xff, 0xff, 0xff,
   0xff, 0xff, 0xff, 0xff, 0xff, 0xff, 0xff, 0xff, 0xff, 0xff, 0xff, 0xff,
   0xff, 0xff, 0xff, 0xff, 0xff, 0xff, 0xff, 0xff, 0xff, 0xff, 0xff, 0xff,
   0xff, 0xff, 0xff, 0xff, 0xff, 0xff, 0xff, 0xff, 0xff, 0xff, 0xff, 0xff,
   0xff, 0xff, 0xff, 0xff, 0xff, 0xff, 0xff, 0xff, 0xff, 0xff, 0xff, 0xff,
   0xff, 0xff, 0xff, 0xff, 0xff, 0xff, 0xff, 0xff, 0xff, 0xff, 0xff, 0xff,
   0xff, 0xff, 0xff, 0xff, 0xff, 0xff, 0xff, 0xff, 0xff, 0xff, 0xff, 0xff,
   0xff, 0xff, 0xff, 0xff, 0xff, 0xff, 0xff, 0xff, 0xff, 0xff, 0xff, 0xff,
   0xff, 0xff, 0xff, 0xff, 0xff, 0xff, 0xff, 0xff, 0xff, 0xff, 0xff, 0xff,
   0xff, 0xff, 0xff, 0xff, 0xff, 0xff, 0xff, 0xff, 0xff, 0xff, 0xff, 0xff,
   0xff, 0xff, 0xff, 0xff, 0xff, 0xff, 0xff, 0xff, 0xff, 0xff, 0xff, 0xff,
   0xff, 0xff, 0xff, 0xff, 0xff, 0xff, 0xff, 0xff, 0xff, 0xff, 0xff, 0xff,
   0xff, 0xff, 0xff, 0xff, 0xff, 0xff, 0xff, 0xff, 0xff, 0xff, 0xff, 0xff,
   0xff, 0xff, 0xff, 0xff, 0xff, 0xff, 0xff, 0xff, 0xff, 0xff, 0xff, 0xff,
   0xff, 0xff, 0xff, 0xff, 0xff, 0xff, 0xff, 0xff, 0xff, 0xff, 0xff, 0xff,
   0xff, 0xff, 0xff, 0xff, 0xff, 0xff, 0xff, 0xff, 0xfb, 0xff, 0xff, 0xff,
   0xff, 0xff, 0xff, 0x7f, 0xfc, 0xff, 0xff, 0xff, 0xff, 0xff, 0xff, 0x7f,
   0xe0, 0xff, 0xff, 0xff, 0xff, 0xff, 0xff, 0x1f, 0xe0, 0xff, 0xff, 0xff,
   0xff, 0xff, 0xff, 0x1f, 0x80, 0xff, 0xff, 0xff, 0xff, 0xff, 0xff, 0x0f,
   0x80, 0xff, 0xff, 0xff, 0xff, 0xff, 0xff, 0x07, 0x00, 0xff, 0xff, 0xff,
   0xff, 0xff, 0xff, 0x03, 0x07, 0xfe, 0xff, 0xff, 0xff, 0xff, 0xff, 0x03,
   0x07, 0xfe, 0xff, 0xff, 0xff, 0xff, 0xff, 0x81, 0x1f, 0xfc, 0xff, 0xff,
   0xff, 0xff, 0xff, 0xc1, 0x0f, 0xfc, 0xff, 0xff, 0xff, 0xff, 0xff, 0xe0,
   0x3f, 0xf8, 0xff, 0xff, 0xff, 0xff, 0xff, 0xe0, 0x3f, 0xf8, 0xff, 0xff,
   0xff, 0xff, 0x7f, 0xf0, 0x3f, 0xf0, 0xff, 0xff, 0xff, 0xff, 0x7f, 0xf0,
   0x7f, 0xf0, 0xff, 0xff, 0xff, 0xff, 0x7f, 0xf0, 0x7f, 0xf0, 0xff, 0xff,
   0xff, 0xff, 0x3f, 0xf0, 0x7f, 0xe0, 0xff, 0xff, 0xff, 0xff, 0x7f, 0xf8,
   0xff, 0xf0, 0xff, 0xff, 0xff, 0xff, 0x3f, 0xf8, 0xff, 0xe0, 0xff, 0xff,
   0xff, 0xff, 0x1f, 0xf8, 0xff, 0xe0, 0xff, 0xff, 0xff, 0xff, 0x3f, 0xfc,
   0xff, 0xe0, 0xff, 0xff, 0xff, 0xff, 0x3f, 0xf8, 0xff, 0xe0, 0xff, 0xff,
   0xff, 0xff, 0x3f, 0xf8, 0xfb, 0xe0, 0xff, 0xff, 0xff, 0xff, 0x1f, 0x08,
   0x80, 0xe0, 0xff, 0xff, 0xff, 0xff, 0x3f, 0x00, 0x00, 0xe0, 0xff, 0xff,
   0xff, 0xff, 0x1f, 0x00, 0x00, 0xc0, 0xff, 0xff, 0xff, 0xff, 0x1f, 0x00,
   0x00, 0x40, 0xff, 0xff, 0xff, 0xff, 0x03, 0x00, 0x09, 0x00, 0xfe, 0xff,
   0xff, 0xff, 0x01, 0xf8, 0x7f, 0x00, 0xf8, 0xff, 0xff, 0x7f, 0x00, 0xf0,
   0xff, 0x00, 0xf8, 0xff, 0xff, 0x7f, 0x00, 0xf0, 0x7f, 0x00, 0xe0, 0xff,
   0xff, 0x1f, 0x60, 0xf0, 0x3f, 0x30, 0xc0, 0xff, 0xff, 0x1f, 0x78, 0xe0,
   0x3f, 0xf8, 0x80, 0xff, 0xff, 0x07, 0xfc, 0xe0, 0x3f, 0xf8, 0x81, 0xff,
   0xff, 0x07, 0xfe, 0xc0, 0x1f, 0xf8, 0x03, 0xfe, 0xff, 0x03, 0xff, 0xc1,
   0x1f, 0xfc, 0x07, 0xfe, 0xff, 0x83, 0xff, 0x81, 0x0f, 0xfe, 0x0f, 0xfc,
   0xff, 0xc0, 0xff, 0x03, 0x07, 0xfe, 0x0f, 0xfc, 0xff, 0xc0, 0xff, 0x03,
   0x06, 0xff, 0x1f, 0xf8, 0xff, 0xe0, 0xff, 0x07, 0x02, 0xff, 0x3f, 0xf8,
   0x7f, 0xe0, 0xff, 0x0f, 0x80, 0xff, 0x3f, 0xf0, 0x7f, 0xf0, 0xff, 0x1f,
   0xc0, 0xff, 0x7f, 0xf0, 0x7f, 0xf0, 0xff, 0x1f, 0xc0, 0xff, 0x7f, 0xe0,
   0x3f, 0xf8, 0xff, 0x0f, 0xc0, 0xff, 0xff, 0xf0, 0x3f, 0xf8, 0xff, 0x05,
   0x00, 0xfe, 0xff, 0xe0, 0x3f, 0xf0, 0xb7, 0x02, 0x00, 0xe8, 0x6f, 0xe0,
   0x3f, 0x00, 0x0a, 0x00, 0x02, 0x00, 0x14, 0xe0, 0x3f, 0x00, 0x00, 0xc0,
   0x0f, 0x00, 0x00, 0xe0, 0x3f, 0x00, 0x00, 0xd0, 0x3f, 0x00, 0x00, 0xe8,
   0xff, 0x00, 0x00, 0xfc, 0xff, 0x01, 0x00, 0xf8, 0xff, 0x07, 0x80, 0xff,
   0xff, 0x17, 0x00, 0xff, 0xff, 0xff, 0xff, 0xff, 0xff, 0xff, 0xff, 0xff,
   0xff, 0xff, 0xff, 0xff, 0xff, 0xff, 0xff, 0xff, 0xff, 0xff, 0xff, 0xff,
   0xff, 0xff, 0xff, 0xff, 0xff, 0xff, 0xff, 0xff, 0xff, 0xff, 0xff, 0xff,
   0xff, 0xff, 0xff, 0xff, 0xff, 0xff, 0xff, 0xff, 0xff, 0xff, 0xff, 0xff,
   0xff, 0xff, 0xff, 0xff, 0xff, 0xff, 0xff, 0xff, 0xff, 0xff, 0xff, 0xff,
   0xff, 0xff, 0xff, 0xff, 0xff, 0xff, 0xff, 0xff, 0xff, 0xff, 0xff, 0xff,
   0xff, 0xff, 0xff, 0xff, 0xff, 0xff, 0xff, 0xff, 0xff, 0xff, 0xff, 0xff,
   0xff, 0xff, 0xff, 0xff, 0xff, 0xff, 0xff, 0xff, 0xff, 0xff, 0xff, 0xff,
   0xff, 0xff, 0xff, 0xff, 0xff, 0xff, 0xff, 0xff, 0xff, 0xff, 0xff, 0xff,
   0xff, 0xff, 0xff, 0xff, 0xff, 0xff, 0xff, 0xff, 0xff, 0xff, 0xff, 0xff,
   0xff, 0xff, 0xff, 0xff, 0xff, 0xff, 0xff, 0xff, 0xff, 0xff, 0xff, 0xff,
   0xff, 0xff, 0xff, 0xff, 0xff, 0xff, 0xff, 0xff, 0xff, 0xff, 0xff, 0xff,
   0xff, 0xff, 0xff, 0xff, 0xff, 0xff, 0xff, 0xff, 0xff, 0xff, 0xff, 0xff,
   0xff, 0xff, 0xff, 0xff, 0xff, 0xff, 0xff, 0xff, 0xff, 0xff, 0xff, 0xff,
   0xff, 0xff, 0xff, 0xff, 0xff, 0xff, 0xff, 0xff, 0xff, 0xff, 0xff, 0xff,
   0xff, 0xff, 0xff, 0xff, 0xff, 0xff, 0xff, 0xff, 0xff, 0xff, 0xff, 0xff,
   0xff, 0xff, 0xff, 0xff, 0xff, 0xff, 0xff, 0xff, 0xff, 0xff, 0xff, 0xff,
   0xff, 0xff, 0xff, 0xff, 0xff, 0xff, 0xff, 0xff, 0xff, 0xff, 0xff, 0xff,
   0xff, 0xff, 0xff, 0xff, 0xff, 0xff, 0xff, 0xff, 0xff, 0xff, 0xff, 0xff,
   0xff, 0xff, 0xff, 0xff, 0xff, 0xff, 0xff, 0xff, 0xff, 0xff, 0xff, 0xff,
   0xff, 0xff, 0xff, 0xff, 0xff, 0xff, 0xff, 0xff, 0xff, 0xff, 0xff, 0xff,
   0xff, 0xff, 0xff, 0xff, 0xff, 0xff, 0xff, 0xff, 0xff, 0xff, 0xff, 0xff,
   0xff, 0xff, 0xff, 0xff, 0xff, 0xff, 0xff, 0xff, 0xff, 0xff, 0xff, 0xff,
   0xff, 0xff, 0xff, 0xff, 0xff, 0xff, 0xff, 0xff, 0xff, 0xff, 0xff, 0xff,
   0xff, 0xff, 0xff, 0xff, 0xff, 0xff, 0xff, 0xff, 0xff, 0xff, 0xff, 0xff,
   0xff, 0xff, 0xff, 0xff, 0xff, 0xff, 0xff, 0xff, 0xff, 0xff, 0xff, 0xff,
   0xff, 0xff, 0xff, 0xff, 0xff, 0xff, 0xff, 0xff, 0xff, 0xff, 0xff, 0xff,
   0xff, 0xff, 0xff, 0xff, 0xff, 0xff, 0xff, 0xff, 0xff, 0xff, 0xff, 0xff,
   0xff, 0xff, 0xff, 0xff };
